!! 00000] TT[00
!! NN
!!!OTL: Gongchan dang laile
!!!ARE: Guizhou, Taijiang
!! Ethnic Group: Miao
!! II, 104
!!!SCT: C0215
!!!YEM: Copyright 1995, estate of Helmut Schaffrath.
**kern
*ICvox
*Ivox
!! Mixed meters:  2/4; 3/4
*M3/4
*k[]
*C:
{4d
4g
=1
2cc
=2
[2dd
=3
4dd]
4gg}
=4
{16dd
16gg
[4.dd
=5
4dd]
8cc
8a
=6
8g
8g
4r}
=7
{8d
4.g
=8
16cc
16dd
4.cc}
=9
{[2dd
=10
4.dd]
8cc#
=11
[2dd
=12
4dd]
4gg}
=13
{8cc
8cc
2g
=14
*M2/4
16dd
16gg
4.dd
=15
8cc
4.r}
=16
{4d
4g
=17
2cc
=18
[2dd
=19
4dd]
4gg}
=20
{4dd
8cc
8a
=21
2dd
=22
*M3/4
8cc
8a
4g
4r}
=23
{4d
2g
=24
*M2/4
8dd
8cc
4cc}
=25
{4.dd
8cc#
=26
[2dd
=27
4dd]
4gg}
=28
{4d
8g
8cc
=29
*M3/4
8cc
4g
8cc
16dd
16cc
8r}
=30
{8cc
8g
8g
8r
8cc
8dd
=31
*M2/4
8cc
8g
8g
8r}
=32
{8cc
8dd
=33
2cc
=34
2dd
=35
8cc
4.r}
==
!!!AGN: Shange, Feige. Xinminge
!! sehr freier Rhythmus, starke Verzierungen, glissandi
!!!ONB: ESAC (Essen Associative Code) Database: CHINA
!!!AMT: irregular
!!!AIN: vox
!!!EED: Helmut Schaffrath
!!!EEV: 1.0
*-
!!!ONB: Tied note syntax fixed by Craig Sapp, 2004/05/03/
